packages/foundations/assets/icons/functional/images/social/heart_24_filled.svg

<svg width="24" height="24" viewBox="0 0 24 24" fill="none" xmlns="http://www.w3.org/2000/svg">
<g clip-path="url(#clip0_2214_6222)">
<path fill-rule="evenodd" clip-rule="evenodd" d="M12 20.5469C11.75 20.5469 11.5 20.4531 11.3125 20.2656L3.5938 12.7656C2.5318 11.7338 2 10.3281 2 8.92188C2 5.92188 4.4375 3.45312 7.4375 3.45312C8.875 3.45312 10.2655 4.03112 11.2812 5.04688L12 5.76562L12.7188 5.04688C13.7657 3.99988 15.1875 3.45312 16.5625 3.45312C19.5938 3.45312 22 5.92188 22 8.92188C22 10.2969 21.5333 11.7052 20.4375 12.7656L12.6875 20.2656C12.5 20.4531 12.2812 20.5469 12 20.5469Z" fill="#1A1C1F"/>
</g>
<defs>
<clipPath id="clip0_2214_6222">
<rect width="24" height="24" fill="white"/>
</clipPath>
</defs>
</svg>

<svg xmlns="http://www.w3.org/2000/svg" width="24" height="24" fill="none"><g clip-path="url(#a)"><path fill="#1A1C1F" fill-rule="evenodd" d="M12 20.547a.97.97 0 0 1-.687-.281l-7.72-7.5C2.533 11.734 2 10.328 2 8.922c0-3 2.438-5.469 5.438-5.469 1.437 0 2.827.578 3.843 1.594l.719.719.719-.72a5.49 5.49 0 0 1 3.844-1.593c3.03 0 5.437 2.469 5.437 5.469 0 1.375-.467 2.783-1.562 3.844l-7.75 7.5a.92.92 0 0 1-.688.28" clip-rule="evenodd"/></g><defs><clipPath id="a"><path fill="#fff" d="M0 0h24v24H0z"/></clipPath></defs></svg>
